X:15
T:James Byrne's Reel
R:reel
S:James Byrne on a radio program
Z:Roughly transcribed by Larry Sanger
M:4/4
K:D
||FDFA BdAc|dAFA BGEG|FDFA BABc|dBAG FGEF|
[D2D2]FA BAFA|dAFA BGEG|FAAF GBec|dBAG FDDc||
defd adfd|defd BAFA|.d/.d/.c df Adfa|gfeg fddc|
decd Adfb|afdf e^def|gfgb fefa|.e/.f/.g fe dBAG||
